src/pug/images/asset3.svg

<svg width="40" height="45" viewBox="0 0 40 45" fill="none" xmlns="http://www.w3.org/2000/svg">
<path d="M36.29 5.58H33.5V2.79C33.5 2.05005 33.2061 1.3404 32.6828 0.817172C32.1596 0.293946 31.45 0 30.71 0L2.79 0C2.05005 0 1.3404 0.293946 0.817172 0.817172C0.293946 1.3404 0 2.05005 0 2.79L0 36.29C0 37.03 0.293946 37.7396 0.817172 38.2628C1.3404 38.7861 2.05005 39.08 2.79 39.08H5.58V41.87C5.58 42.61 5.87395 43.3196 6.39717 43.8428C6.65625 44.1019 6.96381 44.3074 7.30231 44.4476C7.64081 44.5878 8.00361 44.66 8.37 44.66H36.29C37.03 44.66 37.7396 44.3661 38.2628 43.8428C38.7861 43.3196 39.08 42.61 39.08 41.87V8.38C39.0813 8.01277 39.0101 7.6489 38.8705 7.30924C38.7309 6.96959 38.5256 6.66084 38.2664 6.4007C38.0072 6.14057 37.6992 5.93416 37.36 5.79333C37.0208 5.65249 36.6572 5.58 36.29 5.58ZM2.79 36.29V2.79H30.71V36.29H2.79ZM36.29 41.87H8.37V39.08H30.71C31.45 39.08 32.1596 38.7861 32.6828 38.2628C33.2061 37.7396 33.5 37.03 33.5 36.29V8.38H36.29V41.87Z" fill="white"/>
<path d="M26.39 8H12.39C12.0213 8 11.6678 8.14645 11.4071 8.40712C11.1464 8.6678 11 9.02135 11 9.39C11 9.75865 11.1464 10.1122 11.4071 10.3729C11.6678 10.6336 12.0213 10.78 12.39 10.78H26.39C26.7587 10.78 27.1122 10.6336 27.3729 10.3729C27.6336 10.1122 27.78 9.75865 27.78 9.39C27.78 9.02135 27.6336 8.6678 27.3729 8.40712C27.1122 8.14645 26.7587 8 26.39 8Z" fill="white"/>
<path d="M26.0382 17.005H6.51822C6.32509 16.9886 6.13068 17.0125 5.94728 17.0752C5.76387 17.1379 5.59548 17.238 5.45277 17.3691C5.31005 17.5002 5.19612 17.6596 5.11818 17.837C5.04024 18.0145 5 18.2062 5 18.4C5 18.5938 5.04024 18.7855 5.11818 18.963C5.19612 19.1404 5.31005 19.2998 5.45277 19.4309C5.59548 19.562 5.76387 19.6621 5.94728 19.7248C6.13068 19.7875 6.32509 19.8114 6.51822 19.795H26.0382C26.3878 19.7654 26.7135 19.6056 26.9509 19.3472C27.1883 19.0889 27.32 18.7508 27.32 18.4C27.32 18.0492 27.1883 17.7111 26.9509 17.4528C26.7135 17.1944 26.3878 17.0346 26.0382 17.005Z" fill="white"/>
<path d="M26.0382 22.005H6.51822C6.32509 21.9886 6.13068 22.0125 5.94728 22.0752C5.76387 22.1379 5.59548 22.238 5.45277 22.3691C5.31005 22.5002 5.19612 22.6596 5.11818 22.837C5.04024 23.0145 5 23.2062 5 23.4C5 23.5938 5.04024 23.7855 5.11818 23.963C5.19612 24.1404 5.31005 24.2998 5.45277 24.4309C5.59548 24.562 5.76387 24.6621 5.94728 24.7248C6.13068 24.7875 6.32509 24.8114 6.51822 24.795H26.0382C26.3878 24.7654 26.7135 24.6056 26.9509 24.3472C27.1883 24.0889 27.32 23.7508 27.32 23.4C27.32 23.0492 27.1883 22.7111 26.9509 22.4528C26.7135 22.1944 26.3878 22.0346 26.0382 22.005Z" fill="white"/>
<path d="M26.92 28H7.4C7.0287 28 6.6726 28.1475 6.41005 28.4101C6.1475 28.6726 6 29.0287 6 29.4C6 29.7713 6.1475 30.1274 6.41005 30.3899C6.6726 30.6525 7.0287 30.8 7.4 30.8H26.92C27.2913 30.8 27.6474 30.6525 27.9099 30.3899C28.1725 30.1274 28.32 29.7713 28.32 29.4C28.32 29.0287 28.1725 28.6726 27.9099 28.4101C27.6474 28.1475 27.2913 28 26.92 28Z" fill="white"/>
</svg>

<svg width="40" height="45" fill="none" xmlns="http://www.w3.org/2000/svg"><path d="M36.29 5.58H33.5V2.79A2.79 2.79 0 0 0 30.71 0H2.79A2.79 2.79 0 0 0 0 2.79v33.5a2.79 2.79 0 0 0 2.79 2.79h2.79v2.79a2.79 2.79 0 0 0 2.79 2.79h27.92a2.79 2.79 0 0 0 2.79-2.79V8.38a2.79 2.79 0 0 0-2.79-2.8zM2.79 36.29V2.79h27.92v33.5H2.79zm33.5 5.58H8.37v-2.79h22.34a2.79 2.79 0 0 0 2.79-2.79V8.38h2.79v33.49z" fill="#fff"/><path d="M26.39 8h-14a1.39 1.39 0 1 0 0 2.78h14a1.39 1.39 0 1 0 0-2.78zm-.352 9.005H6.518a1.399 1.399 0 1 0 0 2.79h19.52a1.4 1.4 0 0 0 0-2.79zm0 5H6.518a1.399 1.399 0 1 0 0 2.79h19.52a1.4 1.4 0 0 0 0-2.79zM26.92 28H7.4a1.4 1.4 0 1 0 0 2.8h19.52a1.4 1.4 0 1 0 0-2.8z" fill="#fff"/></svg>
